X:1427
T:Big Pat's Reel
R:reel
H:See also Drogheda Bay, #158
D:Tommy Keane: The Piper's Apron
Z:id:hn-reel-442
M:C|
K:Em
BGEF G2BG|~G2AG FDFA|BGEF GABd|1 gefd efdc:|2 gefd ~e3f||
|:~g3a bgag|eaag fdef|1 ~g3a bgag|fedf ~e3f:|2 ~g3e ~f3d|egfd e2dc||


